icons/outline/border-right-plus.svg

<!--
category: Design
tags: [add, right, enhance, expand, boost, increase, enlarge, amplify, edge, extend]
unicode: "fdbb"
version: "3.0"
-->
<svg
  xmlns="http://www.w3.org/2000/svg"
  width="24"
  height="24"
  viewBox="0 0 24 24"
  fill="none"
  stroke="currentColor"
  stroke-width="2"
  stroke-linecap="round"
  stroke-linejoin="round"
>
  <path d="M20 20v-16m-4 0v.01m-4 -.01v.01m-4 -.01v.01m-4 -.01v.01m0 3.99v.01m0 3.99v.01m0 3.99v.01m12 3.99v.01m-4 -.01v.01m-4 -.01v.01m-4 -.01v.01m11 -8.01h-6m3 -3v6" />
</svg>

<!--
category: Design
tags: [add, right, enhance, expand, boost, increase, enlarge, amplify, edge, extend]
unicode: "fdbb"
version: "3.0"
-->
<svg
  xmlns="http://www.w3.org/2000/svg"
  width="24"
  height="24"
  viewBox="0 0 24 24"
  fill="none"
  stroke="currentColor"
  stroke-width="2"
  stroke-linecap="round"
  stroke-linejoin="round"
>
    <path d="M20 20v-16M16 4v.01M12 4v.01M8 4v.01M4 4v.01M4 8v.01M4 12v.01M4 16v.01M16 20v.01M12 20v.01M8 20v.01M4 20v.01M15 12h-6M12 9v6" />
</svg>
